icons/branch.svg

<?xml version="1.0" encoding="UTF-8"?>
<svg width="256px" height="256px" viewBox="0 0 256 256" version="1.1" xmlns="http://www.w3.org/2000/svg" xmlns:xlink="http://www.w3.org/1999/xlink" preserveAspectRatio="xMidYMid">
    <g>
				<path d="M256,127.996353 C256,57.4003134 198.577803,0 128.003647,0 C57.4294914,0 0,57.4003134 0,127.996353 C0,194.689842 51.2729449,249.624619 116.471064,255.467502 L116.784727,255.467502 C117.854585,255.559899 118.926875,255.640139 120.001596,255.708221 L120.621627,255.744693 C121.594225,255.803049 122.581412,255.846816 123.583188,255.875994 L124.363699,255.875994 C125.574583,255.875994 126.785468,255.93435 128.010942,255.93435 C129.236415,255.93435 130.323294,255.93435 131.475823,255.883288 L131.964553,255.883288 C132.980918,255.85411 133.992421,255.812775 134.99906,255.759282 L135.203305,255.759282 C137.474322,255.632844 139.73075,255.445619 141.972589,255.197606 C205.996296,248.253255 256,193.85827 256,127.996353 Z M141.53492,243.015814 L140.302151,207.615672 L171.216185,188.650007 C178.4504,193.608514 187.855834,194.085862 195.554896,189.885253 C203.253958,185.684645 207.942904,177.517404 207.688617,168.750648 C207.193118,156.472981 197.353376,146.633239 185.075709,146.13774 C178.119701,145.88819 171.420101,148.779386 166.829786,154.011722 C162.239472,159.244058 160.244939,166.262996 161.397806,173.12734 L139.579997,186.62214 L137.997094,142.016356 L168.422396,123.408121 C179.110867,131.390126 193.992344,130.524153 203.68284,121.356269 C213.373337,112.188385 215.062153,97.3777083 207.684352,86.2635789 C200.306552,75.1494495 186.002044,70.9554883 173.790989,76.3263301 C161.579934,81.697172 155.004112,95.07502 158.210115,108.024049 L137.267645,121.022824 L136.027582,85.4257302 C145.991772,81.5729091 152.39542,71.8016983 151.951446,61.127796 C151.432624,48.6816181 141.807146,38.5281996 129.406368,37.3461601 C117.00559,36.1641205 105.635233,44.3162205 102.774385,56.4402488 C99.9135357,68.5642772 106.440171,80.9394444 118.061262,85.4257302 L115.799972,159.180282 L93.0047015,144.65696 C94.5255562,138.441989 93.7995011,131.889406 90.9549508,126.158142 C86.3958969,116.67531 77.204844,109.949793 66.722667,109.29329 C53.7591278,108.447172 41.8248137,116.35697 37.5536249,128.625883 C33.2824362,140.894795 37.7246962,154.505787 48.4110961,161.892946 C59.0974959,169.280106 73.4001543,168.626864 83.368685,160.296339 L115.143468,180.399943 L113.232312,242.877219 C56.3353184,235.619205 12.1453198,186.870152 12.1453198,127.996353 C12.1890868,64.1404189 64.1404189,12.1744978 128.003647,12.1744978 C191.866876,12.1744978 243.818208,64.1258299 243.818208,127.989058 C243.818208,187.278644 199.037356,236.290298 141.53492,243.015814 Z" fill="#333E48"></path>
				<path d="M127.272727,47.1636364 C135.595849,47.1716548 142.341072,53.9168779 142.349091,62.24 C142.349091,70.5664457 135.599173,77.3163636 127.272727,77.3163636 C118.946282,77.3163636 112.196364,70.5664457 112.196364,62.24 C112.196364,53.9135543 118.946282,47.1636364 127.272727,47.1636364 Z M184.109091,155.803636 C191.659397,155.799577 197.79013,161.90429 197.818182,169.454545 C197.832886,174.991829 194.509789,179.992463 189.39907,182.123723 C184.288351,184.254983 178.396979,183.096944 174.473197,179.189814 C170.549415,175.282685 169.36633,169.396292 171.475835,164.276555 C173.585339,159.156817 178.571795,155.812483 184.109091,155.803636 Z M192.545455,116.094545 C184.547774,119.980784 174.913587,116.658762 171.010909,108.669091 C168.156345,102.811763 169.111458,95.8116099 173.430838,90.9331076 C177.750219,86.0546052 184.583136,84.2586055 190.743106,86.382661 C196.903075,88.5067166 201.17685,94.1324811 201.571384,100.636416 C201.965919,107.140352 198.403506,113.241466 192.545455,116.094545 Z M64.3599983,120.574545 C73.9523707,120.582566 81.7265234,128.356719 81.7345438,137.949091 C81.7305271,147.538876 73.9546338,155.310428 64.3648478,155.309089 C54.7750618,155.30775 47.0013389,147.534027 47,137.944241 C46.9986611,128.354455 54.7702131,120.578562 64.3599983,120.574545 Z" fill="#009BDE"></path>
		</g>
</svg>

<svg xmlns="http://www.w3.org/2000/svg" viewBox="0 0 256 255.934">
  <path fill="#333e48" d="M256 127.996C256 57.4 198.578 0 128.004 0 57.429 0 0 57.4 0 127.996c0 66.694 51.273 121.629 116.471 127.472h.314c1.07.092 2.142.172 3.217.24l.62.037c.972.058 1.96.102 2.961.131h.78c1.212 0 2.422.058 3.648.058 1.225 0 2.312 0 3.465-.05h.489c1.016-.03 2.027-.071 3.034-.125h.204c2.271-.126 4.528-.313 6.77-.561C205.996 248.253 256 193.858 256 127.996zm-114.465 115.02-1.233-35.4 30.914-18.966a23.306 23.306 0 0 0 36.473-19.9c-.496-12.277-10.336-22.117-22.613-22.612a23.167 23.167 0 0 0-23.678 26.99l-21.818 13.494-1.583-44.606 30.425-18.608c10.689 7.982 25.57 7.116 35.26-2.052 9.691-9.168 11.38-23.978 4.002-35.092-7.377-11.115-21.682-15.309-33.893-9.938-12.211 5.371-18.787 18.749-15.58 31.698l-20.943 12.999-1.24-35.597a24.94 24.94 0 0 0 15.923-24.298c-.518-12.446-10.144-22.6-22.545-23.782-12.4-1.182-23.77 6.97-26.632 19.094-2.86 12.124 3.666 24.5 15.287 28.986L115.8 159.18l-22.795-14.523a27.114 27.114 0 0 0-2.05-18.499c-4.56-9.483-13.75-16.208-24.232-16.865a28.893 28.893 0 1 0 16.646 51.003l31.774 20.104-1.91 62.477C56.334 235.62 12.144 186.87 12.144 127.997 12.19 64.14 64.14 12.173 128.004 12.173c63.863 0 115.814 51.952 115.814 115.815 0 59.29-44.78 108.301-102.283 115.027z"/>
  <path fill="#009bde" d="M127.273 47.164c8.323.008 15.068 6.753 15.076 15.076 0 8.326-6.75 15.076-15.076 15.076-8.327 0-15.077-6.75-15.077-15.076s6.75-15.076 15.077-15.076zm56.836 108.64c7.55-.004 13.681 6.1 13.71 13.65a13.687 13.687 0 1 1-13.71-13.65zm8.436-39.71c-7.997 3.887-17.631.565-21.534-7.425a16.11 16.11 0 1 1 21.534 7.426zm-128.185 4.48c9.592.009 17.367 7.783 17.375 17.375-.004 9.59-7.78 17.361-17.37 17.36-9.59-.001-17.364-7.775-17.365-17.365-.001-9.59 7.77-17.365 17.36-17.37z"/>
</svg>
